symbolic/48x48/apps/fern-wifi-cracker.svg

<svg xmlns="http://www.w3.org/2000/svg" width="48" height="48" version="1.1">
 <path opacity=".2" d="m4.0215 24.418a20 20 0 0 0 -0.0215 0.582 20 20 0 0 0 20 20 20 20 0 0 0 20 -20 20 20 0 0 0 -0.021 -0.418 20 20 0 0 1 -19.979 19.418 20 20 0 0 1 -19.978 -19.582z"/>
 <path style="fill:#afba0d" d="m24 4a20 20 0 0 0 -20 20 20 20 0 0 0 20 20 20 20 0 0 0 20 -20 20 20 0 0 0 -20 -20z"/>
 <path style="fill:#3f3f3f" d="M 23,27 V 43.878906 A 10,20 0 0 0 24,44 10,20 0 0 0 25,43.900391 V 27 Z"/>
 <path fill="#f4f4f7" opacity=".2" d="m24 4a20 20 0 0 0 -20 20 20 20 0 0 0 0.0215 0.418 20 20 0 0 1 19.978 -19.418 20 20 0 0 1 19.979 19.582 20 20 0 0 0 0.021 -0.582 20 20 0 0 0 -20 -20z"/>
 <path style="opacity:0.2" d="m 30.257812,12.482844 -0.896484,1.796875 A 12,12 0 0 1 36,25.000422 12,12 0 0 1 29.365234,35.730891 l 0.888672,1.777343 A 14,14 0 0 0 38,25.000422 14,14 0 0 0 30.257812,12.482844 Z m -12.511718,0.0098 A 14,14 0 0 0 10,25.000422 14,14 0 0 0 17.742188,37.518 l 0.896484,-1.796875 A 12,12 0 0 1 12,25.000422 12,12 0 0 1 18.634766,14.269953 Z m 10.724609,3.566406 -0.896484,1.792968 A 8,8 0 0 1 32,25.000422 8,8 0 0 1 27.576172,32.152766 l 0.890625,1.78125 A 10,10 0 0 0 34,25.000422 10,10 0 0 0 28.470703,16.059016 Z m -8.9375,0.0078 A 10,10 0 0 0 14,25.000422 10,10 0 0 0 19.529297,33.941828 L 20.425781,32.14886 A 8,8 0 0 1 16,25.000422 8,8 0 0 1 20.423828,17.848078 Z"/>
 <path style="fill:#3f3f3f" d="M 30.257812 11.482422 L 29.361328 13.279297 A 12 12 0 0 1 36 24 A 12 12 0 0 1 29.365234 34.730469 L 30.253906 36.507812 A 14 14 0 0 0 38 24 A 14 14 0 0 0 30.257812 11.482422 z M 17.746094 11.492188 A 14 14 0 0 0 10 24 A 14 14 0 0 0 17.742188 36.517578 L 18.638672 34.720703 A 12 12 0 0 1 12 24 A 12 12 0 0 1 18.634766 13.269531 L 17.746094 11.492188 z M 28.470703 15.058594 L 27.574219 16.851562 A 8 8 0 0 1 32 24 A 8 8 0 0 1 27.576172 31.152344 L 28.466797 32.933594 A 10 10 0 0 0 34 24 A 10 10 0 0 0 28.470703 15.058594 z M 19.533203 15.066406 A 10 10 0 0 0 14 24 A 10 10 0 0 0 19.529297 32.941406 L 20.425781 31.148438 A 8 8 0 0 1 16 24 A 8 8 0 0 1 20.423828 16.847656 L 19.533203 15.066406 z"/>
 <circle style="opacity:0.2" cx="24" cy="25" r="4"/>
 <circle style="fill:#3f3f3f" cx="24" cy="24" r="4"/>
</svg>

<svg xmlns="http://www.w3.org/2000/svg" width="48" height="48"><path opacity=".2" d="M4.021 24.418A20 20 0 0 0 4 25a20 20 0 0 0 20 20 20 20 0 0 0 20-20 20 20 0 0 0-.021-.418A20 20 0 0 1 24 44 20 20 0 0 1 4.022 24.418z"/><path style="fill:#afba0d" d="M24 4A20 20 0 0 0 4 24a20 20 0 0 0 20 20 20 20 0 0 0 20-20A20 20 0 0 0 24 4z"/><path style="fill:#3f3f3f" d="M23 27v16.879A10 20 0 0 0 24 44a10 20 0 0 0 1-.1V27z"/><path fill="#f4f4f7" opacity=".2" d="M24 4A20 20 0 0 0 4 24a20 20 0 0 0 .021.418A20 20 0 0 1 24 5a20 20 0 0 1 19.979 19.582 20 20 0 0 0 .02-.582A20 20 0 0 0 24 4z"/><path style="opacity:.2" d="m30.258 12.483-.897 1.797A12 12 0 0 1 36 25a12 12 0 0 1-6.635 10.73l.889 1.778A14 14 0 0 0 38 25a14 14 0 0 0-7.742-12.517zm-12.512.01A14 14 0 0 0 10 25a14 14 0 0 0 7.742 12.518l.897-1.797A12 12 0 0 1 12 25.001a12 12 0 0 1 6.635-10.731zm10.725 3.566-.897 1.793A8 8 0 0 1 32 25a8 8 0 0 1-4.424 7.153l.89 1.781A10 10 0 0 0 34 25a10 10 0 0 0-5.53-8.941zm-8.938.008A10 10 0 0 0 14 25a10 10 0 0 0 5.53 8.942l.896-1.793A8 8 0 0 1 16 25a8 8 0 0 1 4.424-7.152z"/><path style="fill:#3f3f3f" d="m30.258 11.482-.897 1.797A12 12 0 0 1 36 24a12 12 0 0 1-6.635 10.73l.889 1.778A14 14 0 0 0 38 24a14 14 0 0 0-7.742-12.518zm-12.512.01A14 14 0 0 0 10 24a14 14 0 0 0 7.742 12.518l.897-1.797A12 12 0 0 1 12 24a12 12 0 0 1 6.635-10.73l-.889-1.778zm10.725 3.567-.897 1.793A8 8 0 0 1 32 24a8 8 0 0 1-4.424 7.152l.89 1.782A10 10 0 0 0 34 24a10 10 0 0 0-5.53-8.941zm-8.938.007A10 10 0 0 0 14 24a10 10 0 0 0 5.53 8.941l.896-1.793A8 8 0 0 1 16 24a8 8 0 0 1 4.424-7.152l-.89-1.782z"/><circle style="opacity:.2" cx="24" cy="25" r="4"/><circle style="fill:#3f3f3f" cx="24" cy="24" r="4"/></svg>
